healthcode/ykm/static/d88e60f10d7b8da943b5e9ebac2fee7f.svg

<svg height="30" viewBox="0 0 26 30" width="26" xmlns="http://www.w3.org/2000/svg"><g fill="none" fill-rule="evenodd"><path d="m0 0h26v30h-26z"/><path d="m8 6c.55228475 0 1 .44771525 1 1v9h9c.5522847 0 1 .4477153 1 1s-.4477153 1-1 1h-11v-11c0-.55228475.44771525-1 1-1z" fill="#000" transform="matrix(.70710678 -.70710678 .70710678 .70710678 -4.67767 12.707107)"/></g></svg>

<?xml version="1.0" encoding="UTF-8"?>
<svg width="26px" height="30px" viewBox="0 0 26 30" version="1.1" xmlns="http://www.w3.org/2000/svg" xmlns:xlink="http://www.w3.org/1999/xlink">
    <title>chevron</title>
    <g id="chevron" stroke="none" stroke-width="1" fill="none" fill-rule="evenodd">
        <rect id="矩形" x="0" y="0" width="26" height="30"></rect>
        <path d="M8,6 C8.55228475,6 9,6.44771525 9,7 L9,16 L18,16 C18.5522847,16 19,16.4477153 19,17 C19,17.5522847 18.5522847,18 18,18 L7,18 L7,7 C7,6.44771525 7.44771525,6 8,6 Z" id="形状结合" fill="#000000" transform="translate(13.000000, 12.000000) rotate(-45.000000) translate(-13.000000, -12.000000) "></path>
    </g>
</svg>
